X:1
T: Miss Carmichael
C:William Shepherd
R:Jig
Q:180
K:F
M:6/8
L:1/16
|:f4a2 f4a2|b4g2 g4f2|e2c2c2 c2d2e2|f2a2g2 f2c2A2|
f4a2 f4a2|b4g2 g4f2|e2c2c2 c2d2e2|f2a2g2 f6:|
|:c2A2A2 A2f2e2|d2B2B2 B2g2f2|e2c2c2 c2d2e2|f2a2g2 f2e2d2|
|1c2A2A2 c2d2_e2|d2B2B2 B2g2f2|e2c2c2 c2a2g2|f6f4d2:|
|2c2A2A2 c2d2_e2|d2B2B2 B2g2f2|e2c2c2 c2d2e2|f2a2g2 f6||
